X:1
T:Sunshine on my shoulders
T:Sunshine on my shoulders
T:John Denver:Mike Taylor:Dick Kniss
T:John Denver
C:John Denver, Mike Taylor, Dick Kniss
Z:All Rights Reserved
L:1/8
M:4/4
K:C
V:1 treble nm="Electric Piano"
%%MIDI program 4
V:1
"C" E2 G4"F" Ac |"C" f2 e4"F" dc |"C" d2"F" e6 |"C" z8 | E2 G4"F" Ac |"C" f2"F" z2 e2 dc | %6
w: Sun- shine on my|shoul- ders make me|hap- py||sun- shine in my|eyes can make me|
"Dm" d8- |"G7" d8 |"C" E2 G4"F" Ac |"C" f2"F" e4 dc |"C" d2"F" e6 |"C" z8 | E2 G4"F" Ac | %13
w: cry||sun- shine on the|wa- ter looks so|love- ly||sun- shine al- most|
"C" f2 e4"F" cd |"C" c8- |"F" c8 |"C" E2 G2"Dm" A3 G |"Em" c4"F" G2 cd |"C" f2"Dm" e6- | %19
w: al- ways makes me|high||If I had a|day that I could|give you|
"Em" e6"F" E2 |"C" EG"Dm" c4 G2 |"Em" f4"F" e2 dc |"Dm" d8- |"G7" d8 |"C" E2 G2"Dm7" A3 G | %25
w: * I'd|give to you a|day just like to-|day||If I had a|
"Em" c4"F" G2 cd |"C" f2 e2"Dm" c4 |"Em" z4"F" z2 E2 |"C" EG"Dm" c4 G2 |"Em" f2 e2"F" c3 d | %30
w: song that I could|sing for you|I'd|sing a song to|make you feel this|
"C" c8- |"Dm" c8 :|"Em" c8 ||"C" E2 G4"F" Ac |"C" fe"F" c4 de |"C" c8- |"Em" c8 |"C" E2 G4"F" Ac | %38
w: way|||sun- shine al- most|all the time makes me|high||sun- shine al- most|
"C" f2 e6- |"C" e8- |"Em" e8- |"C" e8 |] %42
w: al- ways||||

